packages/ui/public/icons/dollar-rounded-pink.svg

<svg width="25" height="25" viewBox="0 0 25 25" fill="none" xmlns="http://www.w3.org/2000/svg">
<circle cx="12.5" cy="12.5" r="12.5" fill="#BF7AF0"/>
<path d="M12.8274 5.00004C12.8006 5.00147 12.7741 5.00396 12.7475 5.00806C12.5584 5.02999 12.3842 5.12126 12.2587 5.2644C12.1332 5.40772 12.0655 5.5924 12.0687 5.78277V6.86089C11.4184 6.95466 10.7979 7.17107 10.2718 7.53168C9.54149 8.03243 9.00208 8.87472 9.00208 9.87152C9.00208 10.8938 9.5957 11.7001 10.2959 12.1796C10.996 12.659 11.8054 12.9314 12.5639 13.2178C13.3224 13.5041 14.0268 13.8004 14.4726 14.1521C14.9184 14.504 15.1353 14.8281 15.1353 15.4939C15.1353 15.9848 14.9408 16.2946 14.5364 16.572C14.1321 16.8492 13.5021 17.0271 12.8354 17.0271C10.9601 17.0271 10.4715 15.6935 10.4715 15.6935C10.3889 15.5071 10.2356 15.3611 10.0454 15.2876C9.85523 15.2144 9.64364 15.2195 9.45716 15.3021C9.27088 15.3846 9.12488 15.5379 9.05144 15.7281C8.97817 15.9183 8.98334 16.1299 9.06588 16.3164C9.06588 16.3164 9.94773 18.1206 12.0687 18.4887V19.5827C12.0658 19.7879 12.1454 19.9858 12.2894 20.1319C12.4334 20.2781 12.6302 20.3603 12.8354 20.3603C13.0406 20.3603 13.2374 20.2781 13.3814 20.1319C13.5255 19.9857 13.605 19.7879 13.6021 19.5827V18.5046C14.2524 18.4108 14.873 18.1944 15.399 17.8338C16.1293 17.333 16.6687 16.4908 16.6687 15.4939C16.6687 14.3863 16.1192 13.5021 15.4148 12.9462C14.7107 12.3906 13.8818 12.0808 13.1069 11.7883C12.332 11.4957 11.6082 11.218 11.1583 10.9098C10.7084 10.6017 10.5355 10.3827 10.5355 9.87159C10.5355 9.38065 10.73 9.07084 11.1345 8.79347C11.5388 8.51627 12.1687 8.33836 12.8354 8.33836C14.7107 8.33836 15.1993 9.67195 15.1993 9.67195C15.2819 9.85841 15.4352 10.0044 15.6254 10.0779C15.8156 10.1511 16.0272 10.1459 16.2137 10.0634C16.3999 9.98088 16.5459 9.82757 16.6194 9.63737C16.6926 9.44716 16.6875 9.23557 16.6049 9.04909C16.6049 9.04909 15.7231 7.24491 13.6021 6.87678V5.78277C13.6064 5.57527 13.5264 5.37491 13.3804 5.22748C13.2345 5.07988 13.0349 4.9979 12.8274 5.00004Z" fill="#1C141E"/>
</svg>

<svg width="25" height="25" fill="none" xmlns="http://www.w3.org/2000/svg"><circle cx="12.5" cy="12.5" r="12.5" fill="#BF7AF0"/><path d="M12.827 5a.804.804 0 0 0-.08.008.768.768 0 0 0-.678.775V6.86c-.65.094-1.271.31-1.797.67-.73.501-1.27 1.344-1.27 2.34 0 1.023.594 1.83 1.294 2.309.7.479 1.51.751 2.268 1.038.758.286 1.463.582 1.909.934.445.352.662.676.662 1.342 0 .49-.194.8-.599 1.078-.404.277-1.034.455-1.7.455-1.876 0-2.364-1.334-2.364-1.334a.77.77 0 0 0-1.406.623s.882 1.805 3.003 2.173v1.094a.767.767 0 1 0 1.533 0v-1.078c.65-.094 1.271-.31 1.797-.671.73-.501 1.27-1.343 1.27-2.34 0-1.108-.55-1.992-1.254-2.548-.704-.555-1.533-.865-2.308-1.158-.775-.292-1.499-.57-1.949-.878-.45-.308-.622-.527-.622-1.038 0-.491.194-.801.598-1.079.405-.277 1.035-.455 1.701-.455 1.876 0 2.364 1.334 2.364 1.334a.77.77 0 1 0 1.406-.623s-.882-1.804-3.003-2.172V5.783A.767.767 0 0 0 12.827 5Z" fill="#1C141E"/></svg>
